X: 15461
T: Glenbeg Lake
R: jig
M: 6/8
K: Eminor
|:B,EE B,EE|GBG AcA|BGE BGE|AFD FED|
B,EE B,EE|GBG AcA|BGE AFD|1 E3 E2D:|2 E3 E2F||
|:G3 BGB|ded dBG|EBB efg|faa afd|
g3 gfe|Bgg fed|B3 AFD|EFE E3:|

